X:18891
T:Woluf mît richem Schalle (1468)
R:
O:Alsace - Elsass
A:
S:
B:Chansons populaires de l'Alsace
Z:transcription (partition) : eric.forgeot@caramail.com
N:Weckerlin I - p. 216
N:
M:3/4
L:1/8
Q:1/4=130
K:Eb
G | B3 G F>A | G2E2 zE | c3 B A>c | B4 zG | 
    B3 G F>A | G2E2 zE | G3 A G F | E4 zF |
    F3 G B>A | G2F2 zF | G>A B>c B>G | B>G E>F HF F ||
M:2/4
F>G A>B | c2 B>G | B>G A>F | E4 z || 


